app/images/timeline/content/trello.svg

<svg xmlns="http://www.w3.org/2000/svg" viewBox="0 0 21.85 6.209"><g fill="#333"><path d="M21.685 2.736c-.25-.125-.54-.1-.81-.09-.144.003-.295.042-.434-.008-.16-.095-.17-.305-.27-.447a.826.826 0 0 0-.963-.196c-.32.164-.534.463-.74.745-.168.173-.29.385-.414.59-.24.404-.425.85-.47 1.32-.406.21-.617.66-1.013.883-.08.04-.1-.07-.102-.126-.01-.28.05-.562.16-.82.136-.31.25-.63.403-.935.477-.983 1.128-1.864 1.716-2.78.07-.114.157-.223.187-.356a.524.524 0 0 0-.084-.408c-.115-.11-.284-.112-.432-.106-.138.008-.294-.015-.408.08-.187.15-.234.4-.327.61-.694 1.205-1.403 2.414-1.885 3.724-.028.065-.037.142-.08.2-.35.132-.55.465-.818.706-.097.08-.186.185-.31.22-.06-.015-.057-.09-.066-.14a1.9 1.9 0 0 1 .16-.813c.137-.314.25-.636.405-.94.505-1.043 1.207-1.972 1.822-2.95a.51.51 0 0 0 .075-.41c-.028-.086-.054-.187-.142-.228-.165-.093-.362-.054-.542-.055a.393.393 0 0 0-.334.177c-.128.17-.16.384-.26.567-.362.61-.71 1.226-1.037 1.853-.265.51-.517 1.027-.72 1.564-.015.033-.028.07-.062.086-.432.272-.768.67-1.208.935-.204.12-.403.266-.64.306-.116.022-.254-.01-.317-.117-.034-.057-.083-.128-.053-.195.07-.056.15-.096.224-.145.604-.393 1.116-.91 1.577-1.46.248-.28.452-.608.54-.974.047-.212.034-.458-.112-.63-.113-.133-.295-.166-.457-.2-.427-.087-.902.018-1.218.328a9.522 9.522 0 0 0-.58.66c-.27-.21-.666-.286-.978-.125-.3.13-.556.333-.83.506.033-.243.016-.51-.138-.712-.148-.12-.356-.132-.535-.09-.09.03-.192.068-.236.158-.034.083.037.15.063.223-.003.11-.034.22-.057.33a20.03 20.03 0 0 1-.518 1.66c-.098.293-.375.498-.434.81-.036.213.123.394.27.527.104.102.274.14.405.07a.636.636 0 0 0 .266-.394c.06-.268.152-.53.28-.772.373-.717 1.032-1.25 1.756-1.59.077-.048.175-.03.25.013-.164.29-.316.59-.41.913-.11.318-.07.668.04.98.085.253.236.505.483.627.294.145.605.308.944.286.13-.002.25-.056.36-.122.362-.21.72-.428 1.042-.695 0 .257.168.473.374.61.247.162.552.283.85.216.316-.087.56-.32.782-.55.115.2.302.35.51.447.225.105.49.17.73.078.33-.125.58-.387.81-.646.143.23.385.374.62.496a.66.66 0 0 0 .54.038c.152-.054.28-.157.395-.267.222-.22.425-.46.586-.728.28-.46.453-.976.587-1.496.02-.067.026-.142.07-.2.077-.017.157-.01.237-.018.235-.01.454-.105.684-.146.102-.013.182-.085.275-.123.054-.025.128-.058.127-.13.01-.102-.085-.17-.165-.21zm-9.07.104c.14-.14.273-.298.453-.387l.056.002c.025.105-.047.197-.097.28-.078.118-.12.255-.207.365a7.053 7.053 0 0 1-1.05 1.1l-.042-.032c.197-.5.51-.948.887-1.328zM19.3 4.286c-.172.326-.38.63-.584.937-.05.064-.11.16-.204.147-.123-.112-.16-.29-.154-.45.013-.265.104-.52.208-.762.2-.45.467-.87.76-1.266.05-.07.102-.15.19-.174.036.068.115.116.118.198.036.48-.113.95-.335 1.37z"/><path d="M7.62 1.035C8.323.98 9.013.757 9.726.808c.24.04.467.156.657.307.068.057.15.133.13.232-.02.23-.266.365-.477.367-.09-.005-.147-.076-.213-.125a.506.506 0 0 0-.273-.073c-.345.002-.69.05-1.028.12.006.02.018.06.025.078-.198.358-.404.71-.575 1.082a10.477 10.477 0 0 0-.85 2.664c-.028.172-.022.346-.033.52-.01.115-.105.223-.224.227-.206.016-.397-.08-.57-.18a.302.302 0 0 1-.157-.222 1.143 1.143 0 0 1 .027-.395c.297-1.184.663-2.357 1.186-3.463.014-.043.078-.13-.005-.136-.297.006-.63.06-.892-.114-.122-.074-.106-.23-.097-.352.012-.1.01-.223.1-.29.084-.074.205-.055.305-.037.28.066.57.04.854.018zM5.205 1.318c0-.076.005-.152-.005-.227a.134.134 0 0 0-.137-.087H.2c-.043.002-.09-.007-.13.014a.13.13 0 0 0-.07.126v4.922c-.01.078.062.152.14.143h4.923a.13.13 0 0 0 .14-.143c.002-1.583 0-3.165.002-4.747zm-2.86 3.717c0 .054-.003.114-.044.154-.048.05-.122.043-.186.045H.687C.625 5.233.552 5.24.503 5.19c-.05-.048-.043-.122-.045-.185V1.66c-.004-.072.018-.16.096-.186.043-.014.09-.013.134-.014h1.428c.063.002.137-.003.185.046.05.048.044.12.046.182v3.347zM4.748 3.49c-.002.063.003.136-.045.184-.05.05-.123.044-.185.046h-1.43c-.06-.003-.134.003-.182-.045-.05-.048-.044-.12-.046-.184V1.66c-.004-.072.018-.162.097-.187.043-.012.088-.012.132-.013h1.428c.062.002.136-.003.184.045.05.048.044.12.046.184v1.8z"/></g></svg>

<?xml version="1.0" encoding="utf-8"?>
<!-- Generator: Adobe Illustrator 18.0.0, SVG Export Plug-In . SVG Version: 6.00 Build 0)  -->
<!DOCTYPE svg PUBLIC "-//W3C//DTD SVG 1.1//EN" "http://www.w3.org/Graphics/SVG/1.1/DTD/svg11.dtd">
<svg version="1.1" id="Layer_1" xmlns="http://www.w3.org/2000/svg" xmlns:xlink="http://www.w3.org/1999/xlink" x="0px" y="0px"
	 viewBox="0 0 21.85 6.209" enable-background="new 0 0 21.85 6.209" xml:space="preserve">
<g>
	<path fill="#333333" d="M21.685,2.736c-0.251-0.125-0.54-0.1-0.81-0.089c-0.144,0.002-0.295,0.041-0.434-0.009
		c-0.161-0.095-0.172-0.305-0.27-0.447c-0.23-0.266-0.649-0.356-0.964-0.197c-0.319,0.164-0.534,0.463-0.741,0.745
		c-0.167,0.174-0.288,0.386-0.413,0.591c-0.24,0.404-0.425,0.849-0.469,1.321c-0.407,0.208-0.618,0.659-1.014,0.882
		c-0.08,0.039-0.101-0.071-0.102-0.126c-0.011-0.281,0.049-0.562,0.16-0.819c0.136-0.311,0.249-0.632,0.403-0.936
		c0.476-0.983,1.127-1.864,1.715-2.781c0.07-0.113,0.157-0.222,0.187-0.355c0.036-0.14-0.007-0.29-0.084-0.408
		c-0.114-0.11-0.283-0.112-0.431-0.106c-0.138,0.008-0.294-0.015-0.408,0.081c-0.187,0.15-0.234,0.399-0.327,0.608
		c-0.694,1.206-1.403,2.415-1.885,3.725c-0.028,0.065-0.037,0.142-0.08,0.199c-0.349,0.133-0.551,0.466-0.818,0.707
		c-0.097,0.081-0.186,0.185-0.311,0.22c-0.06-0.015-0.056-0.091-0.065-0.139c-0.009-0.279,0.049-0.558,0.16-0.814
		c0.137-0.313,0.251-0.635,0.405-0.939c0.506-1.043,1.208-1.972,1.823-2.95c0.076-0.12,0.117-0.271,0.075-0.411
		c-0.028-0.085-0.054-0.186-0.142-0.227c-0.165-0.093-0.362-0.054-0.542-0.055c-0.134-0.007-0.259,0.069-0.334,0.177
		c-0.127,0.169-0.16,0.384-0.26,0.567c-0.361,0.609-0.709,1.225-1.036,1.852c-0.265,0.509-0.517,1.027-0.721,1.564
		c-0.014,0.033-0.027,0.069-0.061,0.086c-0.433,0.272-0.769,0.671-1.209,0.935c-0.204,0.119-0.403,0.266-0.641,0.306
		c-0.115,0.022-0.253-0.01-0.316-0.117c-0.034-0.057-0.083-0.128-0.053-0.195c0.069-0.056,0.15-0.096,0.224-0.145
		c0.604-0.393,1.116-0.911,1.577-1.461c0.248-0.279,0.452-0.607,0.541-0.973c0.046-0.212,0.033-0.458-0.113-0.63
		c-0.114-0.133-0.296-0.166-0.458-0.201c-0.427-0.086-0.902,0.019-1.218,0.329c-0.205,0.208-0.394,0.432-0.579,0.658
		c-0.271-0.209-0.667-0.285-0.979-0.124c-0.299,0.129-0.556,0.333-0.829,0.506C9.87,2.897,9.853,2.629,9.699,2.428
		C9.552,2.307,9.344,2.296,9.165,2.339c-0.09,0.028-0.192,0.067-0.236,0.157C8.896,2.579,8.967,2.647,8.993,2.719
		C8.99,2.831,8.959,2.941,8.936,3.05C8.793,3.612,8.609,4.162,8.418,4.709C8.32,5.003,8.043,5.208,7.984,5.519
		c-0.036,0.214,0.123,0.395,0.27,0.528c0.104,0.102,0.274,0.141,0.405,0.07c0.135-0.09,0.234-0.235,0.267-0.394
		c0.06-0.268,0.152-0.529,0.281-0.772c0.372-0.718,1.031-1.252,1.755-1.592c0.077-0.047,0.175-0.028,0.25,0.014
		c-0.164,0.291-0.316,0.591-0.411,0.913c-0.109,0.318-0.069,0.668,0.042,0.98c0.084,0.253,0.235,0.505,0.482,0.627
		c0.294,0.145,0.605,0.308,0.944,0.286c0.13-0.001,0.252-0.055,0.362-0.121c0.361-0.209,0.719-0.428,1.041-0.695
		c0.001,0.257,0.168,0.473,0.374,0.611c0.247,0.161,0.552,0.282,0.85,0.215c0.316-0.086,0.561-0.32,0.782-0.55
		c0.115,0.201,0.302,0.352,0.511,0.448c0.224,0.105,0.489,0.169,0.729,0.078c0.33-0.125,0.581-0.387,0.809-0.646
		c0.144,0.231,0.386,0.375,0.621,0.497c0.164,0.09,0.366,0.103,0.541,0.038C19.04,6,19.168,5.897,19.283,5.787
		c0.222-0.219,0.425-0.46,0.586-0.728c0.28-0.46,0.454-0.975,0.588-1.495c0.019-0.067,0.026-0.142,0.069-0.2
		c0.078-0.017,0.158-0.011,0.238-0.018c0.235-0.011,0.454-0.105,0.684-0.146c0.102-0.013,0.182-0.085,0.275-0.123
		c0.054-0.025,0.128-0.058,0.127-0.129C21.86,2.845,21.765,2.777,21.685,2.736z M12.615,2.84c0.14-0.14,0.273-0.298,0.453-0.387
		c0.014,0.001,0.042,0.002,0.056,0.002c0.025,0.105-0.047,0.197-0.097,0.281C12.949,2.853,12.908,2.99,12.82,3.1
		c-0.307,0.405-0.663,0.772-1.049,1.101c-0.011-0.008-0.032-0.025-0.043-0.033C11.925,3.669,12.237,3.22,12.615,2.84z M19.299,4.286
		c-0.171,0.326-0.378,0.631-0.583,0.937c-0.051,0.064-0.109,0.161-0.204,0.147c-0.123-0.112-0.159-0.289-0.154-0.449
		c0.013-0.266,0.104-0.521,0.208-0.763c0.2-0.451,0.467-0.869,0.759-1.266c0.052-0.069,0.103-0.149,0.191-0.174
		c0.036,0.068,0.115,0.116,0.118,0.198C19.67,3.395,19.521,3.867,19.299,4.286z"/>
	<path fill="#333333" d="M7.619,1.035c0.705-0.054,1.395-0.278,2.108-0.227c0.241,0.04,0.467,0.156,0.657,0.307
		c0.068,0.057,0.151,0.133,0.129,0.232c-0.019,0.231-0.265,0.365-0.476,0.367C9.948,1.709,9.89,1.638,9.824,1.589
		C9.742,1.541,9.646,1.513,9.551,1.517c-0.346,0.002-0.69,0.05-1.029,0.12c0.006,0.02,0.018,0.059,0.025,0.078
		C8.349,2.073,8.143,2.426,7.972,2.797C7.567,3.64,7.29,4.542,7.123,5.461C7.094,5.632,7.1,5.806,7.089,5.979
		C7.081,6.095,6.985,6.203,6.866,6.207C6.66,6.223,6.469,6.126,6.296,6.028C6.212,5.984,6.152,5.899,6.139,5.805
		C6.124,5.673,6.136,5.539,6.167,5.41C6.464,4.226,6.83,3.053,7.353,1.947c0.014-0.043,0.078-0.13-0.005-0.136
		c-0.297,0.005-0.63,0.06-0.892-0.115C6.334,1.622,6.35,1.466,6.359,1.344c0.013-0.1,0.011-0.223,0.101-0.29
		C6.544,0.98,6.665,0.999,6.765,1.017C7.045,1.083,7.335,1.057,7.619,1.035L7.619,1.035z"/>
	<path fill="#333333" d="M5.205,1.318C5.204,1.242,5.21,1.166,5.2,1.091C5.179,1.036,5.123,0.996,5.063,1.003
		C3.442,1.002,1.821,1.004,0.2,1.002c-0.043,0.003-0.091-0.006-0.13,0.015C0.024,1.042-0.004,1.091,0.001,1.143
		c-0.001,1.64,0,3.281,0,4.922c-0.01,0.078,0.061,0.152,0.139,0.143c1.641,0,3.282,0,4.923,0c0.079,0.01,0.152-0.064,0.141-0.143
		C5.205,4.482,5.204,2.9,5.205,1.318z M2.345,5.035C2.344,5.089,2.342,5.149,2.301,5.189c-0.049,0.05-0.123,0.044-0.187,0.046
		c-0.476-0.001-0.952,0-1.427,0C0.625,5.233,0.552,5.239,0.503,5.19C0.454,5.142,0.46,5.068,0.458,5.005
		c0.001-1.115,0-2.229,0.001-3.344C0.454,1.588,0.476,1.499,0.554,1.474C0.597,1.46,0.643,1.461,0.688,1.46
		c0.476,0.001,0.952,0.001,1.428,0c0.063,0.002,0.137-0.003,0.185,0.046c0.048,0.048,0.043,0.12,0.045,0.182
		C2.345,2.804,2.346,3.92,2.345,5.035z M4.748,3.49C4.746,3.553,4.751,3.626,4.703,3.674C4.654,3.723,4.58,3.718,4.518,3.72
		c-0.476-0.001-0.953-0.001-1.429,0C3.027,3.717,2.954,3.723,2.906,3.675C2.857,3.627,2.862,3.554,2.86,3.491
		c0.001-0.61,0-1.22,0.001-1.83C2.856,1.588,2.878,1.498,2.957,1.473C3,1.461,3.045,1.461,3.089,1.46
		c0.476,0.001,0.953,0.001,1.429,0C4.58,1.462,4.654,1.457,4.702,1.505c0.049,0.048,0.044,0.121,0.046,0.184
		C4.747,2.29,4.747,2.89,4.748,3.49z"/>
</g>
</svg>
